humanity-icon-theme/Humanity/devices/32/multimedia-player-ipod-touch.svg

<?xml version="1.0" encoding="UTF-8" standalone="no"?>
<!-- Created with Inkscape (http://www.inkscape.org/) -->
<svg
   xmlns:dc="http://purl.org/dc/elements/1.1/"
   xmlns:cc="http://creativecommons.org/ns#"
   xmlns:rdf="http://www.w3.org/1999/02/22-rdf-syntax-ns#"
   xmlns:svg="http://www.w3.org/2000/svg"
   xmlns="http://www.w3.org/2000/svg"
   xmlns:xlink="http://www.w3.org/1999/xlink"
   xmlns:sodipodi="http://sodipodi.sourceforge.net/DTD/sodipodi-0.dtd"
   xmlns:inkscape="http://www.inkscape.org/namespaces/inkscape"
   version="1.0"
   width="32"
   height="32"
   id="svg3295"
   sodipodi:version="0.32"
   inkscape:version="0.46"
   sodipodi:docname="iPhone_off.svg"
   inkscape:output_extension="org.inkscape.output.svg.inkscape">
  <metadata
     id="metadata53">
    <rdf:RDF>
      <cc:Work
         rdf:about="">
        <dc:format>image/svg+xml</dc:format>
        <dc:type
           rdf:resource="http://purl.org/dc/dcmitype/StillImage" />
      </cc:Work>
    </rdf:RDF>
  </metadata>
  <sodipodi:namedview
     inkscape:window-height="706"
     inkscape:window-width="640"
     inkscape:pageshadow="2"
     inkscape:pageopacity="0.0"
     guidetolerance="10.0"
     gridtolerance="10.0"
     objecttolerance="10.0"
     borderopacity="1.0"
     bordercolor="#666666"
     pagecolor="#ffffff"
     id="base"
     showgrid="false"
     inkscape:zoom="15.5625"
     inkscape:cx="16"
     inkscape:cy="16"
     inkscape:window-x="0"
     inkscape:window-y="24"
     inkscape:current-layer="svg3295" />
  <defs
     id="defs3297">
    <inkscape:perspective
       sodipodi:type="inkscape:persp3d"
       inkscape:vp_x="0 : 16 : 1"
       inkscape:vp_y="0 : 1000 : 0"
       inkscape:vp_z="32 : 16 : 1"
       inkscape:persp3d-origin="16 : 10.666667 : 1"
       id="perspective55" />
    <radialGradient
       cx="51.4375"
       cy="-12.203125"
       r="2.171875"
       fx="51.4375"
       fy="-12.203125"
       id="radialGradient2484"
       xlink:href="#linearGradient51765"
       gradientUnits="userSpaceOnUse"
       gradientTransform="matrix(-1.8417267,-5.8450938e-8,-1.2125708e-7,0.9200109,52.236437,52.586419)" />
    <linearGradient
       id="linearGradient51765">
      <stop
         id="stop51767"
         style="stop-color:#000000;stop-opacity:1"
         offset="0" />
      <stop
         id="stop51769"
         style="stop-color:#000000;stop-opacity:0"
         offset="1" />
    </linearGradient>
    <radialGradient
       cx="51.4375"
       cy="-12.203125"
       r="2.171875"
       fx="51.4375"
       fy="-12.203125"
       id="radialGradient2482"
       xlink:href="#linearGradient51765"
       gradientUnits="userSpaceOnUse"
       gradientTransform="matrix(1.8417267,-5.1455073e-7,6.2669991e-7,0.9200109,-115.2312,52.586443)" />
    <linearGradient
       id="linearGradient47870">
      <stop
         id="stop47872"
         style="stop-color:#000000;stop-opacity:0"
         offset="0" />
      <stop
         id="stop47878"
         style="stop-color:#000000;stop-opacity:1"
         offset="0.5" />
      <stop
         id="stop47874"
         style="stop-color:#000000;stop-opacity:0"
         offset="1" />
    </linearGradient>
    <linearGradient
       x1="32.084972"
       y1="-14.402173"
       x2="32.084972"
       y2="-5.5633383"
       id="linearGradient2480"
       xlink:href="#linearGradient47870"
       gradientUnits="userSpaceOnUse"
       gradientTransform="matrix(0.6655121,0,0,0.4518781,-54.615029,45.875214)" />
    <linearGradient
       id="linearGradient3176">
      <stop
         id="stop3178"
         style="stop-color:#aaaaaa;stop-opacity:1"
         offset="0" />
      <stop
         id="stop3180"
         style="stop-color:#6c6c6c;stop-opacity:1"
         offset="1" />
    </linearGradient>
    <linearGradient
       x1="24"
       y1="41.209427"
       x2="24"
       y2="44.02306"
       id="linearGradient2517"
       xlink:href="#linearGradient3176"
       gradientUnits="userSpaceOnUse"
       gradientTransform="matrix(0.6799979,0,0,0.6666656,-0.3199883,0.5000249)" />
    <linearGradient
       id="linearGradient3188">
      <stop
         id="stop3190"
         style="stop-color:#404040;stop-opacity:1"
         offset="0" />
      <stop
         id="stop3192"
         style="stop-color:#282828;stop-opacity:1"
         offset="1" />
    </linearGradient>
    <linearGradient
       x1="23.052357"
       y1="3"
       x2="23.052357"
       y2="42.073647"
       id="linearGradient2514"
       xlink:href="#linearGradient3188"
       gradientUnits="userSpaceOnUse"
       gradientTransform="matrix(0.619049,0,0,0.6315797,1.1428224,1.2894585)" />
    <linearGradient
       id="linearGradient3219">
      <stop
         id="stop3221"
         style="stop-color:#3c3c3c;stop-opacity:1"
         offset="0" />
      <stop
         id="stop3223"
         style="stop-color:#313131;stop-opacity:1"
         offset="1" />
    </linearGradient>
    <radialGradient
       cx="24.000002"
       cy="22.5"
       r="10"
       fx="24.000002"
       fy="22.5"
       id="radialGradient2511"
       xlink:href="#linearGradient3219"
       gradientUnits="userSpaceOnUse"
       gradientTransform="matrix(0.6315804,0,0,0.8826937,0.342068,-4.8606098)" />
    <linearGradient
       id="linearGradient3208">
      <stop
         id="stop3210"
         style="stop-color:#ffffff;stop-opacity:1"
         offset="0" />
      <stop
         id="stop3212"
         style="stop-color:#ffffff;stop-opacity:0"
         offset="1" />
    </linearGradient>
    <linearGradient
       x1="24"
       y1="4"
       x2="24"
       y2="48.301048"
       id="linearGradient2508"
       xlink:href="#linearGradient3208"
       gradientUnits="userSpaceOnUse"
       gradientTransform="matrix(0.5789492,0,0,0.6111119,2.1052211,1.7499812)" />
    <linearGradient
       id="linearGradient3246">
      <stop
         id="stop3248"
         style="stop-color:#e6e6e6;stop-opacity:1"
         offset="0" />
      <stop
         id="stop3250"
         style="stop-color:#e6e6e6;stop-opacity:0"
         offset="1" />
    </linearGradient>
    <linearGradient
       x1="14"
       y1="2"
       x2="32"
       y2="40"
       id="linearGradient2505"
       xlink:href="#linearGradient3246"
       gradientUnits="userSpaceOnUse"
       gradientTransform="matrix(0.625,0,0,0.6,1.6249998,2)" />
    <linearGradient
       id="linearGradient3260">
      <stop
         id="stop3262"
         style="stop-color:#333333;stop-opacity:1"
         offset="0" />
      <stop
         id="stop3264"
         style="stop-color:#3e3e3e;stop-opacity:1"
         offset="1" />
    </linearGradient>
    <linearGradient
       x1="24"
       y1="37"
       x2="24"
       y2="39"
       id="linearGradient2499"
       xlink:href="#linearGradient3260"
       gradientUnits="userSpaceOnUse"
       gradientTransform="translate(-8,-13.000001)" />
    <linearGradient
       inkscape:collect="always"
       xlink:href="#linearGradient3260"
       id="linearGradient2429"
       gradientUnits="userSpaceOnUse"
       gradientTransform="translate(-8,-13.000001)"
       x1="24"
       y1="37"
       x2="24"
       y2="39" />
    <linearGradient
       inkscape:collect="always"
       xlink:href="#linearGradient3246"
       id="linearGradient2435"
       gradientUnits="userSpaceOnUse"
       gradientTransform="matrix(0.625,0,0,0.6,1.6249998,2)"
       x1="14"
       y1="2"
       x2="32"
       y2="40" />
    <linearGradient
       inkscape:collect="always"
       xlink:href="#linearGradient3208"
       id="linearGradient2438"
       gradientUnits="userSpaceOnUse"
       gradientTransform="matrix(0.5789492,0,0,0.6111119,2.1052211,1.7499812)"
       x1="24"
       y1="4"
       x2="24"
       y2="48.301048" />
    <radialGradient
       inkscape:collect="always"
       xlink:href="#linearGradient3219"
       id="radialGradient2441"
       gradientUnits="userSpaceOnUse"
       gradientTransform="matrix(0.6842118,0,0,0.8826937,-0.4210857,-4.8606098)"
       cx="24.000002"
       cy="22.5"
       fx="24.000002"
       fy="22.5"
       r="10" />
    <linearGradient
       inkscape:collect="always"
       xlink:href="#linearGradient3188"
       id="linearGradient2444"
       gradientUnits="userSpaceOnUse"
       gradientTransform="matrix(0.619049,0,0,0.6315797,1.1428224,1.2894585)"
       x1="23.052357"
       y1="3"
       x2="23.052357"
       y2="42.073647" />
    <linearGradient
       inkscape:collect="always"
       xlink:href="#linearGradient3176"
       id="linearGradient2447"
       gradientUnits="userSpaceOnUse"
       gradientTransform="matrix(0.6799979,0,0,0.6666656,-0.3199883,0.5000249)"
       x1="24"
       y1="41.209427"
       x2="24"
       y2="44.02306" />
  </defs>
  <g
     id="g3423"
     transform="matrix(0.6666667,0,0,1.0000001,36.998255,-12.361265)">
    <rect
       style="opacity:0.3;fill:url(#linearGradient2480);fill-opacity:1;fill-rule:evenodd;stroke:none"
       id="rect46899"
       y="39.367184"
       x="-42.497383"
       height="3.9940758"
       width="22" />
    <path
       style="opacity:0.3;fill:url(#radialGradient2482);fill-opacity:1;fill-rule:evenodd;stroke:none"
       id="path48849"
       d="M -20.497383,39.36126 L -20.497383,43.357557 C -18.292362,43.342467 -16.497383,42.459765 -16.497383,41.366469 C -16.497383,40.273174 -18.292361,39.376347 -20.497383,39.36126 z" />
    <path
       style="opacity:0.3;fill:url(#radialGradient2484);fill-opacity:1;fill-rule:evenodd;stroke:none"
       id="path52742"
       d="M -42.497383,39.36126 L -42.497383,43.357557 C -44.702404,43.342467 -46.497383,42.459765 -46.497383,41.366469 C -46.497383,40.273174 -44.702405,39.376347 -42.497383,39.36126 z" />
  </g>
  <rect
     style="fill:#e6e6e6;fill-opacity:1;fill-rule:nonzero;stroke:url(#linearGradient2447);stroke-width:1;stroke-linecap:butt;stroke-linejoin:round;marker:none;marker-start:none;marker-mid:none;marker-end:none;stroke-miterlimit:4;stroke-dasharray:none;stroke-dashoffset:0;stroke-opacity:1;visibility:visible;display:inline;overflow:visible;enable-background:accumulate"
     id="rect3166"
     y="1.4999985"
     x="7.4999609"
     ry="1.5"
     rx="1.5"
     height="28"
     width="17" />
  <rect
     style="fill:url(#linearGradient2444);fill-opacity:1;fill-rule:nonzero;stroke:#1a1a1a;stroke-width:0.99992186;stroke-linecap:butt;stroke-linejoin:round;marker:none;marker-start:none;marker-mid:none;marker-end:none;stroke-miterlimit:4;stroke-dasharray:none;stroke-dashoffset:0;stroke-opacity:1;visibility:visible;display:inline;overflow:visible;enable-background:accumulate"
     id="rect3184"
     y="3.4999628"
     x="9.4999609"
     ry="0.5"
     rx="0.5"
     height="24.000076"
     width="13.000077" />
  <rect
     style="fill:url(#radialGradient2441);fill-opacity:1;fill-rule:nonzero;stroke:#212121;stroke-width:0.99992174;stroke-linecap:butt;stroke-linejoin:round;marker:none;marker-start:none;marker-mid:none;marker-end:none;stroke-miterlimit:4;stroke-dasharray:none;stroke-dashoffset:0;stroke-opacity:1;visibility:visible;display:inline;overflow:visible;enable-background:accumulate"
     id="rect3216"
     y="6.4999609"
     x="9.4999609"
     height="17.000078"
     width="13.000078" />
  <rect
     style="opacity:0.2;fill:none;fill-opacity:1;fill-rule:nonzero;stroke:url(#linearGradient2438);stroke-width:0.99992192;stroke-linecap:butt;stroke-linejoin:round;marker:none;marker-start:none;marker-mid:none;marker-end:none;stroke-miterlimit:4;stroke-dasharray:none;stroke-dashoffset:0;stroke-opacity:1;visibility:visible;display:inline;overflow:visible;enable-background:accumulate"
     id="rect3196"
     y="4.4999609"
     x="10.499961"
     height="22.000078"
     width="11.000078" />
  <path
     style="opacity:0.15;fill:url(#linearGradient2435);fill-opacity:1;fill-rule:nonzero;stroke:none;stroke-width:0.99992186;stroke-linecap:butt;stroke-linejoin:round;marker:none;marker-start:none;marker-mid:none;marker-end:none;stroke-miterlimit:4;stroke-dasharray:none;stroke-dashoffset:0;stroke-opacity:1;visibility:visible;display:inline;overflow:visible;enable-background:accumulate"
     id="rect3238"
     d="M 11,5 L 11,26 L 21,5 L 11,5 z" />
  <rect
     style="fill:#333333;fill-opacity:1;fill-rule:nonzero;stroke:none;stroke-width:0.99992174;stroke-linecap:butt;stroke-linejoin:round;marker:none;marker-start:none;marker-mid:none;marker-end:none;stroke-miterlimit:4;stroke-dasharray:none;stroke-dashoffset:0;stroke-opacity:1;visibility:visible;display:inline;overflow:visible;enable-background:accumulate"
     id="rect3233"
     y="4.666666"
     x="14"
     height="0.66666669"
     width="4" />
  <rect
     style="fill:#7f7f7f;fill-opacity:1;fill-rule:nonzero;stroke:none;stroke-width:0.99992174;stroke-linecap:butt;stroke-linejoin:round;marker:none;marker-start:none;marker-mid:none;marker-end:none;stroke-miterlimit:4;stroke-dasharray:none;stroke-dashoffset:0;stroke-opacity:1;visibility:visible;display:inline;overflow:visible;enable-background:accumulate"
     id="rect3254"
     y="6"
     x="7"
     height="1.0000002"
     width="1" />
  <rect
     style="fill:#7f7f7f;fill-opacity:1;fill-rule:nonzero;stroke:none;stroke-width:0.99992174;stroke-linecap:butt;stroke-linejoin:round;marker:none;marker-start:none;marker-mid:none;marker-end:none;stroke-miterlimit:4;stroke-dasharray:none;stroke-dashoffset:0;stroke-opacity:1;visibility:visible;display:inline;overflow:visible;enable-background:accumulate"
     id="rect3256"
     y="7.9999995"
     x="7"
     height="2"
     width="1" />
  <rect
     style="fill:url(#linearGradient2429);fill-opacity:1;fill-rule:nonzero;stroke:none;stroke-width:0.99992174;stroke-linecap:butt;stroke-linejoin:round;marker:none;marker-start:none;marker-mid:none;marker-end:none;stroke-miterlimit:4;stroke-dasharray:none;stroke-dashoffset:0;stroke-opacity:1;visibility:visible;display:inline;overflow:visible;enable-background:accumulate"
     id="rect3258"
     y="24"
     x="15"
     height="2"
     width="2" />
</svg>

<?xml version="1.0" encoding="UTF-8" standalone="no"?>
<!-- Created with Inkscape (http://www.inkscape.org/) -->
<svg id="svg3295" xmlns:rdf="http://www.w3.org/1999/02/22-rdf-syntax-ns#" xmlns="http://www.w3.org/2000/svg" height="32" width="32" version="1.0" xmlns:cc="http://creativecommons.org/ns#" xmlns:xlink="http://www.w3.org/1999/xlink" xmlns:dc="http://purl.org/dc/elements/1.1/">
 <metadata id="metadata53">
  <rdf:RDF>
   <cc:Work rdf:about="">
    <dc:format>image/svg+xml</dc:format>
    <dc:type rdf:resource="http://purl.org/dc/dcmitype/StillImage"/>
   </cc:Work>
  </rdf:RDF>
 </metadata>
 <defs id="defs3297">
  <radialGradient id="radialGradient2484" xlink:href="#linearGradient51765" gradientUnits="userSpaceOnUse" cy="-12.203" cx="51.438" gradientTransform="matrix(-1.8417 -5.8451e-8 -1.2126e-7 .92001 52.236 52.586)" r="2.1719"/>
  <linearGradient id="linearGradient51765">
   <stop id="stop51767" offset="0"/>
   <stop id="stop51769" style="stop-opacity:0" offset="1"/>
  </linearGradient>
  <radialGradient id="radialGradient2482" xlink:href="#linearGradient51765" gradientUnits="userSpaceOnUse" cy="-12.203" cx="51.438" gradientTransform="matrix(1.8417 -5.1455e-7 6.267e-7 .92001 -115.23 52.586)" r="2.1719"/>
  <linearGradient id="linearGradient2480" y2="-5.5633" gradientUnits="userSpaceOnUse" x2="32.085" gradientTransform="matrix(.66551 0 0 .45188 -54.615 45.875)" y1="-14.402" x1="32.085">
   <stop id="stop47872" style="stop-opacity:0" offset="0"/>
   <stop id="stop47878" offset=".5"/>
   <stop id="stop47874" style="stop-opacity:0" offset="1"/>
  </linearGradient>
  <linearGradient id="linearGradient2429" y2="39" gradientUnits="userSpaceOnUse" x2="24" gradientTransform="translate(-8 -13)" y1="37" x1="24">
   <stop id="stop3262" style="stop-color:#333" offset="0"/>
   <stop id="stop3264" style="stop-color:#3e3e3e" offset="1"/>
  </linearGradient>
  <linearGradient id="linearGradient2435" y2="40" gradientUnits="userSpaceOnUse" x2="32" gradientTransform="matrix(.625 0 0 .6 1.625 2)" y1="2" x1="14">
   <stop id="stop3248" style="stop-color:#e6e6e6" offset="0"/>
   <stop id="stop3250" style="stop-color:#e6e6e6;stop-opacity:0" offset="1"/>
  </linearGradient>
  <linearGradient id="linearGradient2438" y2="48.301" gradientUnits="userSpaceOnUse" x2="24" gradientTransform="matrix(.57895 0 0 .61111 2.1052 1.75)" y1="4" x1="24">
   <stop id="stop3210" style="stop-color:#fff" offset="0"/>
   <stop id="stop3212" style="stop-color:#fff;stop-opacity:0" offset="1"/>
  </linearGradient>
  <radialGradient id="radialGradient2441" gradientUnits="userSpaceOnUse" cy="22.5" cx="24" gradientTransform="matrix(.68421 0 0 .88269 -.42109 -4.8606)" r="10">
   <stop id="stop3221" style="stop-color:#3c3c3c" offset="0"/>
   <stop id="stop3223" style="stop-color:#313131" offset="1"/>
  </radialGradient>
  <linearGradient id="linearGradient2444" y2="42.074" gradientUnits="userSpaceOnUse" x2="23.052" gradientTransform="matrix(.61905 0 0 .63158 1.1428 1.2895)" y1="3" x1="23.052">
   <stop id="stop3190" style="stop-color:#404040" offset="0"/>
   <stop id="stop3192" style="stop-color:#282828" offset="1"/>
  </linearGradient>
  <linearGradient id="linearGradient2447" y2="44.023" gradientUnits="userSpaceOnUse" x2="24" gradientTransform="matrix(0.68 0 0 .66667 -.31999 .50002)" y1="41.209" x1="24">
   <stop id="stop3178" style="stop-color:#aaa" offset="0"/>
   <stop id="stop3180" style="stop-color:#6c6c6c" offset="1"/>
  </linearGradient>
 </defs>
 <g id="g3423" transform="matrix(.66667 0 0 1 36.998 -12.361)">
  <rect id="rect46899" style="opacity:.3;fill:url(#linearGradient2480);fill-rule:evenodd" height="3.9941" width="22" y="39.367" x="-42.497"/>
  <path id="path48849" style="opacity:.3;fill:url(#radialGradient2482);fill-rule:evenodd" d="m-20.497 39.361v3.997c2.205-0.016 4-0.898 4-1.992 0-1.093-1.795-1.99-4-2.005z"/>
  <path id="path52742" style="opacity:.3;fill:url(#radialGradient2484);fill-rule:evenodd" d="m-42.497 39.361v3.997c-2.205-0.016-4-0.898-4-1.992 0-1.093 1.795-1.99 4-2.005z"/>
 </g>
 <rect id="rect3166" style="stroke-linejoin:round;stroke:url(#linearGradient2447);fill:#e6e6e6" rx="1.5" ry="1.5" height="28" width="17" y="1.5" x="7.5"/>
 <rect id="rect3184" style="stroke-linejoin:round;stroke-width:.99992;stroke:#1a1a1a;fill:url(#linearGradient2444)" rx=".5" ry=".5" height="24" width="13" y="3.5" x="9.5"/>
 <rect id="rect3216" style="stroke-linejoin:round;stroke-width:.99992;stroke:#212121;fill:url(#radialGradient2441)" height="17" width="13" y="6.5" x="9.5"/>
 <rect id="rect3196" style="opacity:.2;stroke-linejoin:round;stroke-width:.99992;stroke:url(#linearGradient2438);fill:none" height="22" width="11" y="4.5" x="10.5"/>
 <path id="rect3238" style="opacity:.15;fill:url(#linearGradient2435)" d="m11 5v21l10-21h-10z"/>
 <rect id="rect3233" style="fill:#333" height=".66667" width="4" y="4.6667" x="14"/>
 <rect id="rect3254" style="fill:#7f7f7f" height="1" width="1" y="6" x="7"/>
 <rect id="rect3256" style="fill:#7f7f7f" height="2" width="1" y="8" x="7"/>
 <rect id="rect3258" style="fill:url(#linearGradient2429)" height="2" width="2" y="24" x="15"/>
</svg>
